X: 517
T: The Chantreuse
R: jig
B: "Preston's Twenty Four Country Dances for the Year 1804", Tho. Preston, ed. p.219
F: http://imslp.org/wiki/24_Country_Dances_for_the_Year_1804_(Preston_(publisher),_Thomas)
N: 2nd strain has initial repeat but no final repeat.
M: 6/8
L: 1/8
K: A
E |\
A2A AAc | B2G E2G | A2E c2A | B3 BBc |\
A2A A2F | G2A Bcd | E2A GFE | A3 A2 :|
|: e |\
a2e agb | a2f e2c | A2A Ace | f2B Bdf |\
a2e agb | a2f e2c | E2E EFG | A3 A2(e//f//g/) |
a2e agb | a2f e2c | A2A Ace | f2B Bcd |\
c2e efa | d2f fgb | ecA E2G | A3 A2 |]
% - - - - - - - - - - - - - - - - - - - - - - - - -

